public/svg/icon/bnty.svg

<svg xmlns="http://www.w3.org/2000/svg" xmlns:xlink="http://www.w3.org/1999/xlink" width="32" height="32" viewBox="0 0 32 32"><defs><linearGradient id="bnty-c" x1="50%" x2="50%" y1="0%" y2="100%"><stop offset="0%" stop-color="#FFF" stop-opacity=".5"/><stop offset="100%" stop-opacity=".5"/></linearGradient><circle id="bnty-b" cx="16" cy="15" r="15"/><filter id="bnty-a" width="111.7%" height="111.7%" x="-5.8%" y="-4.2%" filterUnits="objectBoundingBox"><feOffset dy=".5" in="SourceAlpha" result="shadowOffsetOuter1"/><feGaussianBlur in="shadowOffsetOuter1" result="shadowBlurOuter1" stdDeviation=".5"/><feComposite in="shadowBlurOuter1" in2="SourceAlpha" operator="out" result="shadowBlurOuter1"/><feColorMatrix in="shadowBlurOuter1" values="0 0 0 0 0 0 0 0 0 0 0 0 0 0 0 0 0 0 0.199473505 0"/></filter><path id="bnty-e" d="M25.195212,18.4007634 C25.9650437,18.8206107 26.2216543,19.7862595 25.7084332,20.5419847 C25.2807489,21.2977099 24.297075,21.5496183 23.5272433,21.129771 C23.0140222,20.8358779 22.7574116,20.3320611 22.7146432,19.8282443 L18.7799478,19.8282443 L16.898137,23.019084 C16.898137,23.0610687 16.8553686,23.1030534 16.8126001,23.1450382 C17.2402844,23.3969466 17.5396634,23.9007634 17.5396634,24.4465649 C17.5396634,25.2862595 16.8126001,26 15.9572316,26 C15.101863,26 14.3747997,25.3282443 14.3747997,24.4465649 C14.3747997,23.9007634 14.6741787,23.4389313 15.101863,23.1450382 C15.101863,23.1030534 15.0590946,23.0610687 15.0163262,23.019084 L13.1345153,19.8282443 L9.19981995,19.8282443 C9.15705152,20.3740458 8.85767252,20.8358779 8.38721982,21.129771 C7.61738811,21.5496183 6.63371427,21.2977099 6.20602999,20.5419847 C5.77834571,19.7862595 6.03495628,18.8206107 6.80478798,18.4007634 C7.31800912,18.1068702 7.87399868,18.1068702 8.34445139,18.3587786 C8.38721982,18.3167939 8.38721982,18.2328244 8.42998824,18.1908397 L10.3545675,15 L8.47275667,11.8091603 C8.42998824,11.7671756 8.38721982,11.6832061 8.38721982,11.6412214 C7.91676711,11.851145 7.31800912,11.8931298 6.84755641,11.5992366 C6.0777247,11.1793893 5.82111414,10.2137405 6.24879842,9.45801527 C6.6764827,8.70229008 7.66015654,8.45038168 8.42998824,8.87022901 C8.94320938,9.16412214 9.19981995,9.66793893 9.24258838,10.1717557 L13.2200522,10.1717557 L15.101863,6.98091603 C15.101863,6.9389313 15.1446314,6.89694656 15.1873999,6.85496183 C14.7597156,6.60305344 14.4603366,6.09923664 14.4603366,5.55343511 C14.4603366,4.71374046 15.1873999,4 16.0427684,4 C16.898137,4 17.6252003,4.67175573 17.6252003,5.55343511 C17.6252003,6.09923664 17.3258213,6.5610687 16.898137,6.85496183 C16.898137,6.89694656 16.9409054,6.9389313 16.9836738,6.98091603 L18.8654847,10.1717557 L22.8001801,10.1717557 C22.8429485,9.6259542 23.1423275,9.16412214 23.6127802,8.87022901 C24.3826119,8.45038168 25.3662857,8.70229008 25.79397,9.45801527 C26.2216543,10.2137405 25.9650437,11.1793893 25.195212,11.5992366 C24.6819909,11.8931298 24.1260013,11.8931298 23.6555486,11.6412214 C23.6127802,11.6832061 23.6127802,11.7671756 23.5700118,11.8091603 L21.6882009,15 L23.5700118,18.1908397 C23.6127802,18.2328244 23.6555486,18.3167939 23.6555486,18.3587786 C24.1260013,18.148855 24.7247593,18.1068702 25.195212,18.4007634 Z M18.0528845,13.9503817 C18.0528845,13.0687023 17.3258213,12.3549618 16.4276843,12.3549618 L14.3747997,12.3549618 C14.1609576,12.3549618 13.9898839,12.5229008 13.9898839,12.7328244 L13.9898839,17.2671756 C13.9898839,17.4770992 14.1609576,17.6450382 14.3747997,17.6450382 L16.4276843,17.6450382 C17.3258213,17.6450382 18.0528845,16.9312977 18.0528845,16.0496183 C18.0528845,15.6717557 17.9245793,15.2938931 17.6679687,15.0419847 C17.8818108,14.7061069 18.0528845,14.370229 18.0528845,13.9503817 Z"/><filter id="bnty-d" width="117.5%" height="115.9%" x="-8.8%" y="-5.7%" filterUnits="objectBoundingBox"><feOffset dy=".5" in="SourceAlpha" result="shadowOffsetOuter1"/><feGaussianBlur in="shadowOffsetOuter1" result="shadowBlurOuter1" stdDeviation=".5"/><feColorMatrix in="shadowBlurOuter1" values="0 0 0 0 0 0 0 0 0 0 0 0 0 0 0 0 0 0 0.204257246 0"/></filter></defs><g fill="none" fill-rule="evenodd"><g fill-rule="nonzero"><use fill="#000" filter="url(#bnty-a)" xlink:href="#bnty-b"/><use fill="#FD7A3D" fill-rule="evenodd" xlink:href="#bnty-b"/><use fill="url(#bnty-c)" fill-rule="evenodd" style="mix-blend-mode:soft-light" xlink:href="#bnty-b"/><circle cx="16" cy="15" r="14.5" stroke="#000" stroke-opacity=".097"/></g><g fill-rule="nonzero"><use fill="#000" filter="url(#bnty-d)" xlink:href="#bnty-e"/><use fill="#FFF" fill-rule="evenodd" xlink:href="#bnty-e"/></g></g></svg>

<svg xmlns="http://www.w3.org/2000/svg" xmlns:xlink="http://www.w3.org/1999/xlink" width="32" height="32" viewBox="0 0 32 32"><defs><filter id="a" width="111.7%" height="111.7%" x="-5.8%" y="-4.2%" filterUnits="objectBoundingBox"><feOffset dy=".5" in="SourceAlpha" result="shadowOffsetOuter1"/><feGaussianBlur in="shadowOffsetOuter1" result="shadowBlurOuter1" stdDeviation=".5"/><feComposite in="shadowBlurOuter1" in2="SourceAlpha" operator="out" result="shadowBlurOuter1"/><feColorMatrix in="shadowBlurOuter1" values="0 0 0 0 0 0 0 0 0 0 0 0 0 0 0 0 0 0 0.199473505 0"/></filter><filter id="d" width="117.5%" height="115.9%" x="-8.8%" y="-5.7%" filterUnits="objectBoundingBox"><feOffset dy=".5" in="SourceAlpha" result="shadowOffsetOuter1"/><feGaussianBlur in="shadowOffsetOuter1" result="shadowBlurOuter1" stdDeviation=".5"/><feColorMatrix in="shadowBlurOuter1" values="0 0 0 0 0 0 0 0 0 0 0 0 0 0 0 0 0 0 0.204257246 0"/></filter><linearGradient id="c" x1="50%" x2="50%" y1="0%" y2="100%"><stop offset="0%" stop-color="#FFF" stop-opacity=".5"/><stop offset="100%" stop-opacity=".5"/></linearGradient><circle id="b" cx="16" cy="15" r="15"/><path id="e" d="M25.195 18.4c.77.42 1.027 1.386.513 2.142-.427.756-1.41 1.008-2.18.588a1.632 1.632 0 01-.813-1.302H18.78l-1.882 3.191c0 .042-.043.084-.085.126.427.252.727.756.727 1.302 0 .84-.727 1.553-1.583 1.553-.855 0-1.582-.672-1.582-1.553 0-.546.3-1.008.727-1.302 0-.042-.043-.084-.086-.126l-1.881-3.19H9.2c-.043.545-.342 1.007-.813 1.3-.77.42-1.753.169-2.181-.587a1.558 1.558 0 01.599-2.141c.513-.294 1.069-.294 1.54-.042.042-.042.042-.126.085-.168L10.355 15l-1.882-3.19a.316.316 0 01-.086-.169c-.47.21-1.069.252-1.54-.042a1.558 1.558 0 01-.598-2.141C6.676 8.702 7.66 8.45 8.43 8.87c.513.294.77.798.813 1.302h3.977l1.882-3.191c0-.042.043-.084.085-.126a1.53 1.53 0 01-.727-1.302c0-.84.727-1.553 1.583-1.553.855 0 1.582.672 1.582 1.553 0 .546-.3 1.008-.727 1.302 0 .042.043.084.086.126l1.881 3.19H22.8c.043-.545.342-1.007.813-1.3.77-.42 1.753-.169 2.181.587a1.558 1.558 0 01-.599 2.141c-.513.294-1.069.294-1.54.042-.042.042-.042.126-.085.168L21.688 15l1.882 3.19a.316.316 0 01.086.169c.47-.21 1.069-.252 1.54.042zm-7.142-4.45c0-.881-.727-1.595-1.625-1.595h-2.053a.38.38 0 00-.385.378v4.534c0 .21.171.378.385.378h2.053c.898 0 1.625-.714 1.625-1.595 0-.378-.128-.756-.385-1.008.214-.336.385-.672.385-1.092z"/></defs><g fill="none"><use fill="#000" filter="url(#a)" xlink:href="#b"/><use fill="#FD7A3D" fill-rule="evenodd" xlink:href="#b"/><use fill="url(#c)" fill-rule="evenodd" style="mix-blend-mode:soft-light" xlink:href="#b"/><circle cx="16" cy="15" r="14.5" stroke="#000" stroke-opacity=".097"/><use fill="#000" filter="url(#d)" xlink:href="#e"/><use fill="#FFF" fill-rule="evenodd" xlink:href="#e"/></g></svg>
